actions/16/im-user-online.svg

<svg xmlns="http://www.w3.org/2000/svg" viewBox="0 0 16 16">
 <g transform="translate(-421.71-531.79)">
  <g fill="#43be80">
   <path d="M8 9A5 4.5 0 0 0 3 13.5 5 4.5 0 0 0 3.033203 14H12.963A5 4.5 0 0 0 13 13.5 5 4.5 0 0 0 8 9M8 10A4 3.5 0 0 1 11.955078 13H4.045A4 3.5 0 0 1 8 10" transform="translate(421.71 531.79)"/>
   <path d="m429.71 533.79c-1.657 0-3 1.343-3 3 0 1.657 1.343 3 3 3 1.657 0 3-1.343 3-3 0-1.657-1.343-3-3-3m1.592 1.232l.707.707-2.83 2.828-1.768-1.768.707-.707 1.061 1.061z"/>
  </g>
  <path fill="#fff" d="m431.31 535.02l.707.707-2.83 2.828-1.768-1.768.707-.707 1.061 1.061z"/>
 </g>
</svg>

<svg xmlns="http://www.w3.org/2000/svg" version="1.1" viewBox="0 0 16 16">
 <g transform="translate(-421.71,-531.79)">
  <g style="fill:#43be80">
   <path d="M 8,9 A 5,4.5 0 0 0 3,13.5 5,4.5 0 0 0 3.0332,14 H 12.963 A 5,4.5 0 0 0 13,13.5 5,4.5 0 0 0 8,9 M 8,10 A 4,3.5 0 0 1 11.955,13 H 4.045 A 4,3.5 0 0 1 8,10" transform="translate(421.71,531.79)"/>
   <path d="M 429.71,533.79 C 428.05,533.79 426.71,535.13 426.71,536.79 426.71,538.45 428.05,539.79 429.71,539.79 431.37,539.79 432.71,538.45 432.71,536.79 432.71,535.13 431.37,533.79 429.71,533.79 M 431.3,535.02 432.01,535.73 429.18,538.56 427.41,536.79 428.12,536.08 429.18,537.14 Z"/>
  </g>
  <path style="fill:#ffffff" d="M 431.31,535.02 432.02,535.73 429.19,538.55 427.42,536.79 428.13,536.08 429.19,537.14 Z"/>
 </g>
</svg>
